X: 40613
T: Tongs By The Fire, The
R: jig
M: 6/8
K: Gmajor
|:GBd cAF|Gge dBG|cec BdB|ABG FED|
GBd cAF|Gge dBG|cec Bag|1 fef gdB:|2 fef g2d||
|:gdB gdB|gfa gdB|gfg eag|fef def|
gag fgf|efe def|gdB AGA|1 BGF GBd:|2 BGF G2D||

